apps/docs/public/file-text.svg

<svg width="16" height="16" viewBox="0 0 16 16" fill="none" xmlns="http://www.w3.org/2000/svg">
<path fill-rule="evenodd" clip-rule="evenodd" d="M14.5 13.5V6.5V5.41421C14.5 5.149 14.3946 4.89464 14.2071 4.70711L9.79289 0.292893C9.60536 0.105357 9.351 0 9.08579 0H8H3H1.5V1.5V13.5C1.5 14.8807 2.61929 16 4 16H12C13.3807 16 14.5 14.8807 14.5 13.5ZM13 13.5V6.5H9.5H8V5V1.5H3V13.5C3 14.0523 3.44772 14.5 4 14.5H12C12.5523 14.5 13 14.0523 13 13.5ZM9.5 5V2.12132L12.3787 5H9.5ZM5.13 5.00062H4.505V6.25062H5.13H6H6.625V5.00062H6H5.13ZM4.505 8H5.13H11H11.625V9.25H11H5.13H4.505V8ZM5.13 11H4.505V12.25H5.13H11H11.625V11H11H5.13Z" fill="#666666"/>
</svg>

<svg xmlns="http://www.w3.org/2000/svg" width="16" height="16" fill="none" viewBox="0 0 16 16"><path fill="#666" fill-rule="evenodd" d="M14.5 13.5V5.414a1 1 0 0 0-.293-.707L9.793.293A1 1 0 0 0 9.086 0H1.5v13.5A2.5 2.5 0 0 0 4 16h8a2.5 2.5 0 0 0 2.5-2.5m-1.5 0v-7H8v-5H3v12a1 1 0 0 0 1 1h8a1 1 0 0 0 1-1M9.5 5V2.121L12.379 5zM5.13 5h-.625v1.25h2.12V5zm-.625 3h7.12v1.25h-7.12zm.625 3h-.625v1.25h7.12V11z" clip-rule="evenodd"/></svg>
